src/assets/1950.svg

<svg width="3366" height="3313" fill="none" xmlns="http://www.w3.org/2000/svg">
  <g filter="url(#filter0_d)">
    <path d="M1960.11 633.824c-62.97-62.667 119.57-197.313-94.99-258.145C1578.85 294.514 761.084 0 761.084 0L25 1384.23s203.563 230.85 273.021 306.9c69.458 76.05 658.727 346.1 771.049 389.45 112.32 43.34 99.13-5.1 110.62 10.19 11.48 15.3-28.08 65.02-11.49 104.54 16.59 39.52 249.43 216.49 403.91 286.64 154.47 70.15-177.2 645.85 443.33 744.72 620.52 98.88 543.33-427.24 587.63-504.69 44.31-77.46 178.54 40.92 247.99 0 69.45-40.92 60.15-197.75 140.69-255.3 80.54-57.56 105.75-30.26 213.76-66.41 108-36.16 157-269.54 126.62-324.02-30.39-54.47-115.71-146.74-131.67-177.73-15.68-30.44-22.86-49.49-41.02-97.69l-1-2.66c-18.91-50.17 23.42-99.74 66.53-188.89 43.11-89.15 122.16-192.66 8.4-292.93-113.75-100.27-271.68 32.41-339.67-67.15-67.99-99.56 10.32-169.71-140.78-233.16-151.09-63.459-440.32 136.67-501.98 89.71-61.65-46.96 29.37-160.521-13.35-221.026-42.72-60.504-214.51-188.232-277.48-250.9z" fill="#fff"/>
  </g>
  <defs>
    <filter id="filter0_d" x="0" y="0" width="3366" height="3313" filterUnits="userSpaceOnUse" color-interpolation-filters="sRGB">
      <feFlood flood-opacity="0" result="BackgroundImageFix"/>
      <feColorMatrix in="SourceAlpha" values="0 0 0 0 0 0 0 0 0 0 0 0 0 0 0 0 0 0 127 0"/>
      <feOffset dy="49"/>
      <feGaussianBlur stdDeviation="12.5"/>
      <feColorMatrix values="0 0 0 0 0 0 0 0 0 0 0 0 0 0 0 0 0 0 0.25 0"/>
      <feBlend in2="BackgroundImageFix" result="effect1_dropShadow"/>
      <feBlend in="SourceGraphic" in2="effect1_dropShadow" result="shape"/>
    </filter>
  </defs>
</svg>

<svg width="3366" height="3313" viewBox="0 0 3366 3313" fill="none" xmlns="http://www.w3.org/2000/svg">
<g filter="url(#filter0_d)">
<path d="M1960.11 633.824C1897.14 571.157 2079.68 436.511 1865.12 375.679C1578.85 294.514 761.084 0 761.084 0L25 1384.23C25 1384.23 228.563 1615.08 298.021 1691.13C367.479 1767.18 956.748 2037.23 1069.07 2080.58C1181.39 2123.92 1168.2 2075.48 1179.69 2090.77C1191.17 2106.07 1151.61 2155.79 1168.2 2195.31C1184.79 2234.83 1417.63 2411.8 1572.11 2481.95C1726.58 2552.1 1394.91 3127.8 2015.44 3226.67C2635.96 3325.55 2558.77 2799.43 2603.07 2721.98C2647.38 2644.52 2781.61 2762.9 2851.06 2721.98C2920.51 2681.06 2911.21 2524.23 2991.75 2466.68C3072.29 2409.12 3097.5 2436.42 3205.51 2400.27C3313.51 2364.11 3362.51 2130.73 3332.13 2076.25C3301.74 2021.78 3216.42 1929.51 3200.46 1898.52C3184.78 1868.08 3177.6 1849.03 3159.44 1800.83L3158.44 1798.17C3139.53 1748 3181.86 1698.43 3224.97 1609.28C3268.08 1520.13 3347.13 1416.62 3233.37 1316.35C3119.62 1216.08 2961.69 1348.76 2893.7 1249.2C2825.71 1149.64 2904.02 1079.49 2752.92 1016.04C2601.83 952.581 2312.6 1152.71 2250.94 1105.75C2189.29 1058.79 2280.31 945.229 2237.59 884.724C2194.87 824.22 2023.08 696.492 1960.11 633.824Z" fill="white"/>
</g>
<defs>
<filter id="filter0_d" x="0" y="0" width="3366" height="3313" filterUnits="userSpaceOnUse" color-interpolation-filters="sRGB">
<feFlood flood-opacity="0" result="BackgroundImageFix"/>
<feColorMatrix in="SourceAlpha" type="matrix" values="0 0 0 0 0 0 0 0 0 0 0 0 0 0 0 0 0 0 127 0"/>
<feOffset dy="49"/>
<feGaussianBlur stdDeviation="12.5"/>
<feColorMatrix type="matrix" values="0 0 0 0 0 0 0 0 0 0 0 0 0 0 0 0 0 0 0.25 0"/>
<feBlend mode="normal" in2="BackgroundImageFix" result="effect1_dropShadow"/>
<feBlend mode="normal" in="SourceGraphic" in2="effect1_dropShadow" result="shape"/>
</filter>
</defs>
</svg>
